X:1
T:Lasset Uns mit Jesu Ziehen, 87.87.87.78.77
T:Lasset Uns mit Jesu Ziehen, 87.87.87.78.77
T:Georg Gottfried Boltze, 1788
T:Public Domain Courtesy of the Cyber Hymnal™
C:Georg Gottfried Boltze, 1788
Z:Public Domain
Z:Courtesy of the Cyber Hymnal™
%%score ( 1 2 ) ( 3 4 )
L:1/8
Q:1/4=110
M:4/4
K:D
V:1 treble 
V:2 treble 
V:3 bass 
V:4 bass 
V:1
 [DA]2 D2 [CE]2 [DF]2 | [DG]2 [DF]2 [DE]2 [CE]2 | [B,D]2 [CE]2 [DF]2 [DG]2 | [DF]2 [CE]2 [A,D]4 | %4
 [DA]2 D2 [CE]2 [DF]2 | [DG]2 [DF]2 [DE]2 [CE]2 | [B,D]2 [CE]2 [DF]2 [DG]2 | [DF]2 [CE]2 [A,D]4 | %8
 [FA]2 [EA]2 [Dd]2 [Ec]2 | [FB]2 [EB]2 [Ec]2 [CA]2 | [DB]2 [DA]2 G2 [DF]2 | [CE]2 D2 [CE]4 | %12
 [CA]2 [DF]2 [DB]2 [CA]2 | [DG]2 [DF]2 [CE]4 | [CA]2 [CA]2 [Dd]2 [Ec]2 | [FB]2 [EB]2 [Ec]2 [CA]2 | %16
 [DB]2 [CA]2 [DG]2 [DF]2 | [CE]2 [B,D]2 [CE]4 | [B,D]2 E2 [DF]2 [DG]2 | [DF]2 [CE]2 [A,D]4 |] %20
V:2
 x2 D2 x4 | x8 | x8 | x8 | x2 D2 x4 | x8 | x8 | x8 | x8 | x8 | x4 (B,C) x2 | x2 D2 x4 | x8 | x8 | %14
 x8 | x8 | x8 | x8 | x2 E2 x4 | x8 |] %20
V:3
 [D,F,]2 [F,A,]2 [E,G,]2 [D,A,]2 | [G,,B,]2 [D,A,]2 [A,,A,]2 [A,,A,]2 | %2
 [B,,F,]2 [A,,A,]2 [D,A,]2 [G,,B,]2 | [A,,A,]2 [A,,A,]2 [D,F,]4 | [D,F,]2 [F,A,]2 [E,G,]2 [D,A,]2 | %5
 [G,,B,]2 [D,A,]2 [A,,A,]2 [A,,A,]2 | [B,,F,]2 [A,,A,]2 [D,A,]2 [G,,B,]2 | %7
 [A,,A,]2 [A,,A,]2 [D,F,]4 | [D,A,]2 [C,A,]2 [B,,F,]2 [C,A,]2 | [D,A,]2 [E,^G,]2 A,2 [A,,E,]2 | %10
 [G,,G,]2 [D,F,]2 [E,G,]2 A,2 | [A,,A,]2 [B,,F,]2 [A,,A,]4 | [A,,F,]2 [B,,D,]2 [G,,G,]2 [A,,E,]2 | %13
 [B,,B,]2 [D,A,]2 [A,,A,]4 | [A,,E,]2 [F,,F,]2 [B,,F,]2 [C,A,]2 | %15
 [D,A,]2 [E,^G,]2 [A,,A,]2 [A,,E,]2 | [G,,G,]2 [A,,E,]2 [B,,B,]2 [D,A,]2 | %17
 [A,,A,]2 [B,,F,]2 [A,,A,]4 | [B,,F,]2 [C,A,]2 [D,A,]2 [G,,B,]2 | [A,,A,]2 [A,,A,]2 [D,F,]4 |] %20
V:4
 x8 | x8 | x8 | x8 | x8 | x8 | x8 | x8 | x8 | x4 A,2 x2 | x6 (F,D,) | x8 | x8 | x8 | x8 | x8 | x8 | %17
 x8 | x8 | x8 |] %20

